public/images/blog-dzen.svg

<svg width="34" height="34" viewBox="0 0 34 34" fill="none" xmlns="http://www.w3.org/2000/svg">
<g id="Group">
<path id="Vector" fill-rule="evenodd" clip-rule="evenodd" d="M6.7505 3.45735C9.52941 1.32584 12.9904 0.209894 16.4752 0.0268555C16.3477 3.17689 16.3951 6.38892 15.5232 9.44448C14.8737 11.8358 13.1921 13.9584 10.9144 14.9976C7.48601 16.4708 3.66315 16.3616 0.00341797 16.5092C0.00341797 11.4313 2.67259 6.46863 6.7505 3.45735Z" fill="#010101"/>
<path id="Vector_2" fill-rule="evenodd" clip-rule="evenodd" d="M17.5127 0C20.5971 0.256844 23.6874 1.0628 26.2735 2.81348C30.8823 5.75981 33.9014 11.0502 33.9874 16.5148C30.6006 16.3967 27.1158 16.4439 23.8713 15.3368C21.5283 14.5132 19.5591 12.668 18.7405 10.3151C17.5424 7.02336 17.572 3.45411 17.5127 0Z" fill="#010101"/>
<path id="Vector_3" fill-rule="evenodd" clip-rule="evenodd" d="M24.4847 18.4916C27.581 17.6443 30.8136 17.6178 33.9989 17.5439C33.8891 21.8453 32.0444 26.0818 28.9363 29.0783C25.9409 32.0896 21.7503 33.8285 17.5093 33.9997C17.5923 30.4836 17.533 26.8405 18.8201 23.5045C19.7366 21.0394 21.9727 19.2031 24.4847 18.4916Z" fill="#010101"/>
<path id="Vector_4" fill-rule="evenodd" clip-rule="evenodd" d="M9.47928e-05 17.5439C3.84964 17.6797 7.96017 17.5026 11.4716 19.3389C13.8739 20.5611 15.2885 23.103 15.7927 25.6626C16.3681 28.4023 16.3859 31.2128 16.457 33.9967C11.9106 33.8226 7.45303 31.8209 4.39534 28.4524C1.71133 25.4884 -0.014734 21.5619 9.47928e-05 17.5439Z" fill="#010101"/>
</g>
</svg>

<svg width="34" height="34" fill="none" xmlns="http://www.w3.org/2000/svg"><path d="M6.75 3.457C9.53 1.326 12.99.21 16.476.027c-.127 3.15-.08 6.362-.952 9.417-.65 2.392-2.33 4.514-4.609 5.554-3.428 1.473-7.25 1.364-10.91 1.511 0-5.078 2.669-10.04 6.747-13.052zM17.513 0c3.084.257 6.174 1.063 8.76 2.813 4.61 2.947 7.628 8.237 7.714 13.702-3.386-.118-6.871-.071-10.116-1.178-2.343-.824-4.312-2.669-5.13-5.022-1.2-3.292-1.169-6.86-1.229-10.315zm6.972 18.492c3.096-.848 6.329-.874 9.514-.948-.11 4.301-1.955 8.538-5.063 11.534C25.941 32.09 21.75 33.828 17.51 34c.083-3.516.024-7.16 1.311-10.495.917-2.466 3.153-4.302 5.665-5.013zM0 17.544c3.85.136 7.96-.041 11.472 1.795 2.402 1.222 3.817 3.764 4.32 6.324.576 2.74.594 5.55.665 8.334-4.546-.174-9.004-2.176-12.062-5.545C1.711 25.488-.015 21.562 0 17.544z" fill-rule="evenodd" clip-rule="evenodd" fill="#010101"/></svg>
